X:323
T:Aros Park
C:Joe Buchanan's Scottish Tome - Page 098.0
I:098 0
R:March
Z:Carl Allison
L:1/8
M:2/4
K:A
W:Intro
%%vskip 0
A>B c a f>e c | Bc A2 A>B A2 | x4 | x4 |
|: A>B c Ac e2 | ce f2 a>f e2 | A>B c2 c2 B/<A/ f | ec B2 B<c B2 |
A>B c2 Ac e2 | ce f2 a>f e2 | A>B c2 a>f ec | Bc A2 A>B A2 :|
|: e f/g/ a2 ea f2 | ec e2 a>e fe | ce a2 ee af e | ac B2 B>c B2 |
[1 e f/g/ a2 ea f2 | ec e2 a>e fe | cA ce a>f ec | Bc A2 A>B A2 :|
[2 A>B ce Bc A2 | ce fA df e2 | A>B c2 a>f ec | Bc A2 A>B A2 :|
|: A>B ce Bc A2 | ce fA df e2 | A>B ce Bc A2 | f2 ec ac B2 |
A>B ce Bc A2 | ce fa fd e2 | AB c2 a>f ec | Bc A2 A>B A2 :|
|: e f/g/ a2 e/e/ a fa | ec e2 a>e fe | ce a2 e/e/ a ge | ac B2 B>c B2 |
[1 e f/g/ a2 e/e/ a fa | ec e2 a>e fe | cA ce a>f ec | Bc A2 A>B A2 :|
[2 A>B ce Bc A2 | ce fa fd e2 | A>B c2 a>f ec | Bc A2 A>B A |]
